images/about_icon-4.svg

<svg width="46" height="46" viewBox="0 0 46 46" fill="none" xmlns="http://www.w3.org/2000/svg">
<rect opacity="0.1" width="46" height="46" rx="5" fill="#FE753F"/>
<path fill-rule="evenodd" clip-rule="evenodd" d="M13.0185 23.6394L13.7926 21.8875H13.0593C12.2444 21.4801 12 20.9505 12 20.0949L14.5667 20.1357L16.237 16.3468C16.9704 15.4505 17.663 14.9616 18.2333 15.0024C21.4519 15.0431 24.5889 15.0431 27.7667 15.0024C28.337 14.9616 29.0296 15.4505 29.763 16.3468L31.4333 20.1357L34 20.0949C34 20.9505 33.7556 21.4801 32.9407 21.8875H32.2074L32.9815 23.6394C32.9815 26.0838 32.9815 28.4875 32.9815 30.932C32.9815 31.4209 32.5741 31.8283 32.0852 31.8283H29.0296C28.5407 31.8283 28.1333 31.4209 28.1333 30.932V28.8542H17.8667V30.932C17.8667 31.4209 17.4593 31.8283 16.9704 31.8283H13.9148C13.4259 31.8283 13.0185 31.4209 13.0185 30.932C13.0185 28.4875 13.0185 26.0838 13.0185 23.6394ZM18.437 16.5505C18.1519 16.5912 17.8667 16.8357 17.5407 17.2024C16.9704 18.4653 16.3593 19.6875 15.7889 20.9505H30.2519C29.6407 19.6875 29.0296 18.4653 28.4593 17.2024C28.1333 16.8357 27.8481 16.5912 27.563 16.5505H18.437ZM20.5556 25.1061C20.1481 25.1061 19.863 25.432 19.863 25.8394C19.863 26.2468 20.1481 26.5727 20.5556 26.5727H25.4444C25.8519 26.5727 26.1778 26.2468 26.1778 25.8394C26.1778 25.432 25.8519 25.1061 25.4444 25.1061H20.5556ZM30.0889 23.8431C29.3148 23.8431 28.663 24.4542 28.663 25.269C28.663 26.0838 29.3148 26.6949 30.0889 26.6949C30.9037 26.6949 31.5556 26.0838 31.5556 25.269C31.5556 24.4542 30.9037 23.8431 30.0889 23.8431ZM15.9111 23.8431C16.6852 23.8431 17.337 24.4542 17.337 25.269C17.337 26.0838 16.6852 26.6949 15.9111 26.6949C15.0963 26.6949 14.4444 26.0838 14.4444 25.269C14.4444 24.4542 15.0963 23.8431 15.9111 23.8431Z" fill="#FE753F"/>
</svg>

<svg width="46" height="46" fill="none" xmlns="http://www.w3.org/2000/svg"><rect opacity=".1" width="46" height="46" rx="5" fill="#FE753F"/><path fill-rule="evenodd" clip-rule="evenodd" d="M13.018 23.64l.775-1.753h-.734C12.244 21.48 12 20.951 12 20.095l2.567.04 1.67-3.788c.733-.897 1.426-1.385 1.996-1.345 3.219.041 6.356.041 9.534 0 .57-.04 1.263.448 1.996 1.345l1.67 3.789L34 20.095c0 .856-.244 1.385-1.06 1.793h-.733l.774 1.751v7.293a.904.904 0 01-.896.896H29.03a.904.904 0 01-.897-.896v-2.078H17.867v2.078a.904.904 0 01-.897.896h-3.055a.904.904 0 01-.896-.896v-7.293zm5.419-7.09c-.285.041-.57.286-.896.652-.57 1.263-1.182 2.485-1.752 3.748h14.463c-.611-1.262-1.222-2.485-1.793-3.748-.326-.366-.61-.61-.896-.652h-9.126zm2.119 8.556c-.408 0-.693.326-.693.733 0 .408.285.734.693.734h4.888a.73.73 0 00.734-.734.73.73 0 00-.734-.733h-4.888zm9.533-1.263c-.774 0-1.426.611-1.426 1.426s.652 1.426 1.426 1.426c.815 0 1.467-.611 1.467-1.426s-.652-1.426-1.467-1.426zm-14.178 0c.774 0 1.426.611 1.426 1.426s-.652 1.426-1.426 1.426c-.815 0-1.467-.611-1.467-1.426s.652-1.426 1.467-1.426z" fill="#FE753F"/></svg>
